X:737
T: Hayden's Rock
Z: Piano Box Version by Martin Fleischmann
H: Created 2015-05-23 /  Last Modified 2015-05-25
R: reel
M: 4/4
L: 1/8
K: Edor
|:E3G E2DB,|DDGE- EEDB,|DEED E2DE|GAAE GE3|
AdBG A2GE|G3A- AEGA|AE~E2 ~G2AG|1B2B2 GEDB,:|2B4 zAB/c/d||
|:e3g e2dB|AAdB- BzAG|EGGE GGEG-|GEGA Bdgf|
dBAE GEEd-|dBAE GEED|~E2GE ~G2AG|B4 zAB/c/d:|
|"var Takt 4"GAAB GE3|

